icons/svg/comment-question-outline.svg

﻿<?xml version="1.0" encoding="utf-8"?>
<!DOCTYPE svg PUBLIC "-//W3C//DTD SVG 1.1//EN" "http://www.w3.org/Graphics/SVG/1.1/DTD/svg11.dtd">
<svg xmlns="http://www.w3.org/2000/svg" xmlns:xlink="http://www.w3.org/1999/xlink" version="1.1" baseProfile="full" width="24" height="24" viewBox="0 0 24.00 24.00" enable-background="new 0 0 24.00 24.00" xml:space="preserve">
	<path fill="#000000" fill-opacity="1" stroke-width="0.2" stroke-linejoin="miter" d="M 4,1.998C 2.89599,1.998 2.00977,2.893 2.00977,3.998L 2,16C 2,17.1046 2.89543,18 4,18L 8,18L 8,21C 8,21.5523 8.44772,22 9,22L 9.5,22L 9.502,21.998C 9.75444,21.9954 10.0047,21.8976 10.1973,21.705L 13.9043,18L 20,17.998C 21.1035,17.998 22,17.102 22,15.998L 22,3.998C 22,2.893 21.1035,1.998 20,1.998L 4,1.998 Z M 4,4L 20,4L 20,16L 13.0762,16L 10,19.0762L 10,16L 4,16L 4,4 Z M 12.1855,5.498C 11.3028,5.498 10.5896,5.6798 10.0488,6.043C 9.51201,6.4027 9.22245,6.9844 9.26953,7.6934C 0.206849,7.6934 6.57429,7.6934 11.2363,7.6934C 11.2443,7.4132 11.3386,7.2024 11.5176,7.0605C 11.6965,6.9187 11.9191,6.8477 12.1855,6.8477C 12.5156,6.8477 12.7703,6.9345 12.9492,7.1074C 13.1282,7.2804 13.2168,7.5122 13.2168,7.8027C 13.2168,8.0829 13.1395,8.3305 12.9844,8.5449C 12.8333,8.7594 12.6238,8.9387 12.3574,9.084C 11.8405,9.3987 11.4859,9.6759 11.291,9.918C 11.0962,10.1601 10.9962,10.5232 10.9922,11.0039L 13.0078,11.0039C 13.0078,10.7168 13.0512,10.4902 13.1387,10.3242C 13.2301,10.1547 13.4037,9.9968 13.6582,9.8516C 14.1155,9.644 14.4909,9.3593 14.7852,8.9961C 15.0834,8.6329 15.2324,8.2351 15.2324,7.8027C 15.2324,7.0972 14.9608,6.5361 14.416,6.1211C 13.8752,5.7061 13.1319,5.498 12.1855,5.498 Z M 11,12L 11,14L 13,14L 13,12L 11,12 Z "/>
</svg>

<svg xmlns="http://www.w3.org/2000/svg" version="1.1" baseProfile="full" width="24" height="24" viewBox="0 0 24.00 24.00" xml:space="preserve"><path fill="#000" fill-opacity="1" stroke-width=".2" stroke-linejoin="miter" d="M4 1.998c-1.104 0-1.99.895-1.99 2L2 16c0 1.105.895 2 2 2h4v3c0 .552.448 1 1 1h.5l.002-.002c.252-.003.503-.1.695-.293L13.904 18 20 17.998c1.104 0 2-.896 2-2v-12c0-1.105-.896-2-2-2H4zM4 4h16v12h-6.924L10 19.076V16H4V4zm8.185 1.498c-.882 0-1.595.182-2.136.545-.538.36-.828.94-.78 1.65h1.966c.008-.28.103-.49.282-.632.178-.14.4-.212.667-.212.33 0 .585.087.764.26.178.172.267.404.267.695 0 .28-.078.528-.233.742-.15.214-.36.394-.627.54-.516.314-.87.59-1.066.833-.194.242-.294.605-.298 1.086h2.016c0-.287.043-.514.13-.68.092-.17.266-.327.52-.472.458-.208.833-.493 1.127-.856.298-.363.447-.76.447-1.193 0-.706-.27-1.267-.816-1.682-.54-.414-1.284-.622-2.23-.622zM11 12v2h2v-2h-2z"/></svg>
